packages/kaspersky-hexa-ui-icons/src/iconsSVGs/64x42/FlagSk.svg

<svg xmlns="http://www.w3.org/2000/svg" width="64" height="42" fill="none" viewBox="0 0 64 42"><g clip-path="url(#a)"><rect width="64" height="42" fill="#fff" rx="5"/><rect width="63" height="41" x="1" y="1" stroke="#f5f5f5" rx="5"/><path fill="#0c47b7" fill-rule="evenodd" d="M0 27.9997h64V13.9998H0z" clip-rule="evenodd"/><path fill="#e53b35" fill-rule="evenodd" d="M0 41.9999h64V28H0z" clip-rule="evenodd"/><mask id="b" width="21" height="27" x="8" y="7" fill="#000" maskUnits="userSpaceOnUse"><path fill="#fff" d="M7.9586 7.0836h21v27h-21z"/><path fill-rule="evenodd" d="M9.9586 20.4722V9.0836H26.228v11.3886c0 8.1347-8.1347 11.3886-8.1347 11.3886s-8.1347-3.2539-8.1347-11.3886" clip-rule="evenodd"/></mask><path fill="#f73744" fill-rule="evenodd" d="M9.9586 20.4722V9.0836H26.228v11.3886c0 8.1347-8.1347 11.3886-8.1347 11.3886s-8.1347-3.2539-8.1347-11.3886" clip-rule="evenodd"/><path stroke="#fff" stroke-width="4" d="M9.9586 20.4722V9.0836H26.228v11.3886c0 8.1347-8.1347 11.3886-8.1347 11.3886s-8.1347-3.2539-8.1347-11.3886Z" clip-rule="evenodd" mask="url(#b)"/><path fill="#fff" fill-rule="evenodd" d="M16.9285 21.9927a.5825.5825 0 0 0-.5825-.5825h-2.3297a.5824.5824 0 0 1-.5825-.5824v-1.1649a.5824.5824 0 0 1 .5825-.5824h2.3297a.5825.5825 0 0 0 .5825-.5825v-1.1649a.5825.5825 0 0 0-.5825-.5824h-1.1648a.5825.5825 0 0 1-.5825-.5824v-1.1649a.5825.5825 0 0 1 .5825-.5825h1.1648a.5824.5824 0 0 0 .5825-.5824v-1.1649a.5824.5824 0 0 1 .5824-.5824h1.1649a.5824.5824 0 0 1 .5824.5824v1.1649c0 .3217.2608.5824.5825.5824h1.1649a.5825.5825 0 0 1 .5824.5825v1.1649a.5825.5825 0 0 1-.5824.5824h-1.1649a.5825.5825 0 0 0-.5825.5824v1.1649c0 .3217.2608.5825.5825.5825h2.3297a.5824.5824 0 0 1 .5825.5824v1.1649a.5824.5824 0 0 1-.5825.5824h-2.3297a.5825.5825 0 0 0-.5825.5825v3.4946a.5823.5823 0 0 1-.5824.5824h-1.1649a.5823.5823 0 0 1-.5824-.5824z" clip-rule="evenodd"/><path fill="#1251a1" fill-rule="evenodd" d="M23.7601 27.5179c-2.3938 3.0337-5.6669 4.3429-5.6669 4.3429s-3.2729-1.3092-5.6667-4.3427c.8707-.6019 2.1155-1.0596 3.5639-1.2878.3751-.784 1.1757-1.3256 2.1029-1.3256s1.7278.5415 2.1029 1.3256c1.4483.2282 2.6931.6858 3.5639 1.2876" clip-rule="evenodd"/></g><defs><clipPath id="a"><rect width="64" height="42" fill="#fff" rx="5"/></clipPath></defs></svg>

<svg width="64" height="42" viewBox="0 0 64 42" fill="none" xmlns="http://www.w3.org/2000/svg">
<g clip-path="url(#clip0_37941_2349)">
<rect width="64" height="42" rx="5" fill="white"/>
<rect x="0.5" y="0.5" width="63" height="41" rx="4.5" stroke="#F5F5F5"/>
<path fill-rule="evenodd" clip-rule="evenodd" d="M0 27.9997H64V13.9998H0V27.9997Z" fill="#0C47B7"/>
<path fill-rule="evenodd" clip-rule="evenodd" d="M0 41.9999H64V28H0V41.9999Z" fill="#E53B35"/>
<mask id="path-5-outside-1_37941_2349" maskUnits="userSpaceOnUse" x="7.95862" y="7.08362" width="21" height="27" fill="black">
<rect fill="white" x="7.95862" y="7.08362" width="21" height="27"/>
<path fill-rule="evenodd" clip-rule="evenodd" d="M9.95862 20.4722C9.95862 15.5914 9.95862 9.08362 9.95862 9.08362H26.228C26.228 9.08362 26.228 15.5914 26.228 20.4722C26.228 28.6069 18.0933 31.8608 18.0933 31.8608C18.0933 31.8608 9.95862 28.6069 9.95862 20.4722Z"/>
</mask>
<path fill-rule="evenodd" clip-rule="evenodd" d="M9.95862 20.4722C9.95862 15.5914 9.95862 9.08362 9.95862 9.08362H26.228C26.228 9.08362 26.228 15.5914 26.228 20.4722C26.228 28.6069 18.0933 31.8608 18.0933 31.8608C18.0933 31.8608 9.95862 28.6069 9.95862 20.4722Z" fill="#F73744"/>
<path fill-rule="evenodd" clip-rule="evenodd" d="M9.95862 20.4722C9.95862 15.5914 9.95862 9.08362 9.95862 9.08362H26.228C26.228 9.08362 26.228 15.5914 26.228 20.4722C26.228 28.6069 18.0933 31.8608 18.0933 31.8608C18.0933 31.8608 9.95862 28.6069 9.95862 20.4722Z" stroke="white" stroke-width="3.70551" mask="url(#path-5-outside-1_37941_2349)"/>
<path fill-rule="evenodd" clip-rule="evenodd" d="M16.9285 21.9927C16.9285 21.671 16.6677 21.4102 16.346 21.4102H14.0163C13.6946 21.4102 13.4338 21.1495 13.4338 20.8278V19.6629C13.4338 19.3412 13.6946 19.0805 14.0163 19.0805H16.346C16.6677 19.0805 16.9285 18.8197 16.9285 18.498V17.3331C16.9285 17.0115 16.6677 16.7507 16.346 16.7507H15.1812C14.8595 16.7507 14.5987 16.4899 14.5987 16.1683V15.0034C14.5987 14.6817 14.8595 14.4209 15.1812 14.4209H16.346C16.6677 14.4209 16.9285 14.1602 16.9285 13.8385V12.6736C16.9285 12.352 17.1892 12.0912 17.5109 12.0912H18.6758C18.9975 12.0912 19.2582 12.352 19.2582 12.6736V13.8385C19.2582 14.1602 19.519 14.4209 19.8407 14.4209H21.0056C21.3272 14.4209 21.588 14.6817 21.588 15.0034V16.1683C21.588 16.4899 21.3272 16.7507 21.0056 16.7507H19.8407C19.519 16.7507 19.2582 17.0115 19.2582 17.3331V18.498C19.2582 18.8197 19.519 19.0805 19.8407 19.0805H22.1704C22.4921 19.0805 22.7529 19.3412 22.7529 19.6629V20.8278C22.7529 21.1495 22.4921 21.4102 22.1704 21.4102H19.8407C19.519 21.4102 19.2582 21.671 19.2582 21.9927V25.4873C19.2582 25.809 18.9975 26.0697 18.6758 26.0697H17.5109C17.1892 26.0697 16.9285 25.809 16.9285 25.4873V21.9927Z" fill="white"/>
<path fill-rule="evenodd" clip-rule="evenodd" d="M23.7601 27.5179C21.3663 30.5516 18.0932 31.8608 18.0932 31.8608C18.0932 31.8608 14.8203 30.5516 12.4265 27.5181C13.2972 26.9162 14.542 26.4585 15.9904 26.2303C16.3655 25.4463 17.1661 24.9047 18.0933 24.9047C19.0204 24.9047 19.8211 25.4462 20.1962 26.2303C21.6445 26.4585 22.8893 26.9161 23.7601 27.5179Z" fill="#1251A1"/>
</g>
<defs>
<clipPath id="clip0_37941_2349">
<rect width="64" height="42" rx="5" fill="white"/>
</clipPath>
</defs>
</svg>
